!!!OTL@@DE: Das verfehlte Wort
!!!COM: Neures Volksweise
!!!ODT: 1817
!!!OMD: M&auml;ssig geschwind
!!!LYR: Tiedge, Christoph August
!!!LDT: 1815
!!!OCL: Erk, Ludwig
!!!GCO: Deutscher Liederschatz, Band 1
**kern	**kern	**kern
*staff3	*staff2	*staff1
*Ipiano	*Ipiano	*Ivox
*clefF4	*clefG2	*clefG2
*k[f#c#g#]	*k[f#c#g#]	*k[f#c#g#]
*A:	*A:	*A:
*M6/8	*M6/8	*M6/8
*MM112	*MM112	*MM112
8r	8r	8e/
=1	=1	=1
4AA/	(8A/L	4a/
.	8c#/	.
8r	8e/J)	8a/
4EE/ 4E/	(8B/L	8g#/L
.	8d/	8f#/J
8r	8e/J)	8g#/
=2	=2	=2
4AA/	(8c#/L	4.a/
.	8e/	.
8r	8a/J)	.
4A\	(8c#/L	4e/
.	8e/	.
8r	8a/J)	8cc#\
=3	=3	=3
4AA/	8c#/L	4cc#\
.	8e/	.
8r	8a/J	8a/
4E\	8B/L	8e/L
.	8d/	8f#/J
8r	8e/J	8g#/
=4	=4	=4
(8A\L	[4.c#/ [4.e/ [4.a/	[4.a/
8C#\	.	.
8E\J)	.	.
8AA/	8c#/] 8e/] 8a/]	8a/]
8r	8r	8r
8r	8r	8cc#\
=5	=5	=5
4C#/	8r	4cc#\
.	8e#/ 8cc#/L	.
8D#\	8f#/ 8cc#/J	8cc#\
4E#\	8r	8cc#\L
.	8g#/ 8b/L	8b\J
8C#/	8e#/ 8b/J	8cc#\
=6	=6	=6
4F#\	8r	(4a/
.	8c#/ 8a/L	.
8G#\	8c#/ 8g#/J	8g#/)
*	*^	*
4A\	(8f#/L	4c#\	8f#/L
.	8g#/	.	8g#/J
8F#\	8a/J)	8c#\	8a/
*	*v	*v	*
=7	=7	=7
4D#\	8r	8b\L
.	8B/ 8f#/L	8cc#\J
8r	8f#/ 8b/J	8b\
4BB/	8r	8a/L
.	8B/ (8d#/L	8g#/J
8r	8d#/ 8a/J)	8f#/
=8	=8	=8
(4.E\	8r	[4.e/
.	8G#/ 8B/L	.
.	8B/ 8e/J	.
8EE/)	8e/ 8g#/	8e/]
8r	8r	8r
8r	8e/	8e/
=9	=9	=9
*^	*	*
8r	4.G#\	(8dd\L	8dd\L
8d/ 8e/L	.	8cc#\	8cc#\J
8d/ 8e/J	.	8b\J)	8b\
8d/L	4.E\	(8b/L	8b/L
8c#/	.	8a/	8a/J
8B/J	.	8g#/J)	8g#/
*v	*v	*	*
=10	=10	=10
*	*^	*
4.AA/	(8a/L	8r	8a\L
.	8cc#/	8c#\ 8e\L	8cc#\
.	8b/J	8c#\ 8e\J	8b\J
4A\	(8a/L)	8r	8a/L
.	8g#/	8c#\L	8g#/J
8F#\	8a/J)	8c#\J	8a/
=11	=11	=11	=11
4.D\	(8f#/L	4f#\	8f#/L
*^	*	*	*
.	.	8dd/	.	8dd/J
.	.	8cc#/J)	8e\	8cc#\
*	*	*v	*v	*
8G#/L	4.E\	8d/ (8b/L	8b/L
8A/	.	8c#/ 8a/	8a/J
8B/J	.	8d/ 8g#/J)	8g#/
*v	*v	*	*
=12	=12	=12
4.AA/	(8c#/ 8cc#/L	4.cc#^\
.	8e/	.
.	8a/J)	.
4.D\	8d/ 8b/L	4.b\
.	8f#/	.
.	8d/J	.
=13	=13	=13
4.E\	(8c#/ 8a/L	4a/
.	8e/	.
.	8c#/) 8a/J	8a/
4.EE/	(8B/ 8g#/L	8g#/L
.	8e/ 8f#/	8f#/J
.	8d/) 8g#/J	8g#/
=14	=14	=14
(8A\L	[4.c#/ [4.a/	[4.a/
8C#\	.	.
8E\J)	.	.
8AA/	8c#/] 8a/]	8a/]
8r	8r	8r
==	==	==
*-	*-	*-
!!!ENC: Craig Stuart Sapp
!!!END: 2004/05/16/
!!!EFL: 092/651
